media/icons/icon-error-grey.svg

<svg xmlns="http://www.w3.org/2000/svg" width="14" height="12" viewBox="0 0 14 12"><path fill="#57626C" d="M14 11.143c0 .147-.038.294-.116.426-.156.266-.446.431-.759.431h-12.25c-.313 0-.603-.165-.759-.431-.077-.132-.116-.281-.116-.43 0-.147.04-.296.12-.429l6.125-10.285c.156-.262.444-.425.755-.425s.599.163.755.425l6.125 10.285c.081.134.12.284.12.433zm-7 0c.604 0 1.094-.48 1.094-1.072 0-.591-.49-1.071-1.094-1.071s-1.094.48-1.094 1.071c0 .592.49 1.072 1.094 1.072zm1.312-7.714h-2.624l.438 4.714h1.75l.436-4.714z"></path></svg>

<svg width="14px" height="12px" viewBox="0 0 14 12" version="1.1" xmlns="http://www.w3.org/2000/svg" xmlns:xlink="http://www.w3.org/1999/xlink">
    <!-- Generator: Sketch 43.2 (39069) - http://www.bohemiancoding.com/sketch -->
    <desc>Created with Sketch.</desc>
    <defs></defs>
    <g id="Page-1" stroke="none" stroke-width="1" fill="none" fill-rule="evenodd">
        <g id="icon-error" transform="translate(-31.000000, -32.000000)" fill-rule="nonzero" fill="#57626C">
            <g transform="translate(31.000000, 32.000000)" id="Group">
                <g>
                    <path d="M14,11.143 C14,11.29 13.962,11.437 13.884,11.569 C13.728,11.835 13.438,12 13.125,12 L0.875,12 C0.562,12 0.272,11.835 0.116,11.569 C0.039,11.437 -1.38777878e-17,11.288 -1.38777878e-17,11.139 C-1.38777878e-17,10.992 0.04,10.843 0.12,10.71 L6.245,0.425 C6.401,0.163 6.689,7.21644966e-16 7,7.21644966e-16 C7.311,7.21644966e-16 7.599,0.163 7.755,0.425 L13.88,10.71 C13.961,10.844 14,10.994 14,11.143 L14,11.143 Z M7,11.143 C7.604,11.143 8.094,10.663 8.094,10.071 C8.094,9.48 7.604,9 7,9 C6.396,9 5.906,9.48 5.906,10.071 C5.906,10.663 6.396,11.143 7,11.143 L7,11.143 Z M8.312,3.429 L5.688,3.429 L6.126,8.143 L7.876,8.143 L8.312,3.429 Z" id="Shape"></path>
                </g>
            </g>
        </g>
    </g>
</svg>
